dist/assets/group-556.svg

<svg width="50" height="50" viewBox="0 0 50 50" fill="none" xmlns="http://www.w3.org/2000/svg">
<g clip-path="url(#clip0_2_358)">
<path d="M11.8164 25C11.8164 15.1597 18.357 6.53311 27.6252 3.83809L29.3908 0.397852C27.9415 0.141602 26.4674 0 25 0C11.2686 0 0 11.2686 0 25C0 38.7314 11.2686 50 25 50C26.4689 50 27.9449 49.8584 29.396 49.6015L29.0827 46.4504C19.0464 44.2667 11.8164 35.3508 11.8164 25Z" fill="#7CAEF8"/>
<path fill-rule="evenodd" clip-rule="evenodd" d="M30.6793 3.15449L37.3047 3.37891C45.0682 7.74414 50 15.9181 50 25C50 26.4634 49.8485 27.9471 49.5908 29.3895L49.5892 29.3886L49.5898 29.3945L49.5604 29.6583C49.2089 31.5332 48.5255 33.4081 47.7051 35.2245C47.7051 35.2245 47.7052 35.2246 47.7052 35.2246C47.6615 35.3265 47.6106 35.4356 47.5596 35.5448C47.5081 35.6554 47.4565 35.766 47.4123 35.8692V35.8983C47.3976 35.9424 47.3756 35.9791 47.3536 36.0158C47.3316 36.0524 47.3096 36.089 47.295 36.1328C46.9142 36.8945 46.4748 37.6269 46.0353 38.3594C45.7717 38.7695 45.4786 39.1797 45.1563 39.5897H45.1563C44.9512 39.9121 44.7167 40.2344 44.4532 40.5566C44.0723 41.0253 43.6914 41.4648 43.2519 41.9044C41.5528 43.7793 39.5313 45.3614 37.334 46.6212H30.2735C25.0587 43.6328 21.0157 38.799 19.0821 33.1153H19.0819H19.0234L18.7686 32.2331C18.724 32.0896 18.6825 31.946 18.6442 31.8025L18.6426 31.797C18.586 31.6046 18.5338 31.4122 18.4842 31.2197L18.2325 30.3028H18.2617C17.8809 28.5451 17.6758 26.7872 17.6758 25.0001V24.6778L17.6758 24.6778L17.6171 24.7071L17.7027 23.8236C17.7034 23.8165 17.704 23.8093 17.7048 23.8022L17.7051 23.7989C17.7147 23.6644 17.7211 23.5329 17.7275 23.4026C17.7407 23.1357 17.7536 22.8732 17.7929 22.5977C17.8055 22.4459 17.8236 22.2997 17.8448 22.1565L17.9102 21.6017L17.9394 21.6017C18.3991 18.1076 19.5803 14.794 21.4404 11.8164H21.2793L22.3587 10.4503C22.6046 10.1095 22.8601 9.77374 23.1249 9.44336L23.5644 8.88672H23.6064C25.5496 6.57126 27.9653 4.64419 30.6793 3.15449Z" fill="#5374E9"/>
<path d="M34.3164 45.3907C28.0762 42.8419 23.2714 37.4512 21.4551 30.9766C21.338 30.5665 21.2208 30.1271 21.1328 29.7168C20.7812 28.1642 20.6055 26.582 20.6055 25C20.6055 24.2969 20.6348 23.6232 20.7226 22.9198C21.1034 18.8769 22.5683 15.0683 25 11.8164L25.4396 11.2598C27.7246 8.38877 30.8007 6.07412 34.3164 4.60928L37.3047 3.37891C36.4843 2.88096 35.6054 2.44141 34.6973 2.06055C34.6973 2.06055 34.0819 1.82627 33.9941 1.79697C32.5293 1.21104 31.1231 0.703126 29.6583 0.439551L29.3945 0.38086L29.1308 0.439551C17.3829 2.66592 8.88672 13.0468 8.88672 25C8.88672 36.9532 17.3829 47.3341 29.1308 49.5605L29.3945 49.6191L29.6583 49.5605C31.1231 49.2969 32.5293 48.7891 33.9941 48.203C34.0819 48.1737 34.1992 48.1152 34.287 48.0859L34.7852 47.8809C35.6641 47.5293 36.5136 47.0898 37.334 46.6211L34.3164 45.3907Z" fill="#6C8DFF"/>
</g>
<defs>
<clipPath id="clip0_2_358">
<rect width="50" height="50" fill="white"/>
</clipPath>
</defs>
</svg>

<svg width="50" height="50" fill="none" xmlns="http://www.w3.org/2000/svg"><g clip-path="url(#clip0_2_358)"><path d="M11.816 25c0-9.84 6.541-18.467 15.81-21.162L29.39.398A25.275 25.275 0 0025 0C11.269 0 0 11.269 0 25s11.269 25 25 25a25.36 25.36 0 004.396-.398l-.313-3.152C19.046 44.267 11.816 35.35 11.816 25z" fill="#7CAEF8"/><path fill-rule="evenodd" clip-rule="evenodd" d="M30.68 3.154l6.625.225C45.068 7.744 50 15.919 50 25c0 1.463-.151 2.947-.41 4.39v-.001.006l-.03.263c-.351 1.875-1.035 3.75-1.855 5.566a9.539 9.539 0 01-.145.32c-.052.111-.104.222-.148.325v.03a.586.586 0 01-.058.117.582.582 0 00-.059.117c-.38.761-.82 1.494-1.26 2.226-.263.41-.556.82-.879 1.23-.205.323-.44.645-.703.968-.38.468-.762.908-1.201 1.347-1.7 1.875-3.72 3.457-5.918 4.717h-7.06c-5.215-2.988-9.258-7.822-11.192-13.506h-.059l-.254-.882a11.065 11.065 0 01-.125-.43l-.001-.006a17.628 17.628 0 01-.159-.577l-.252-.917h.03A24.925 24.925 0 0117.676 25v-.322l-.059.03.086-.884.002-.022V23.8c.01-.135.016-.266.023-.396.013-.267.026-.53.065-.805.012-.152.03-.298.052-.441l.065-.555h.03a24.402 24.402 0 013.5-9.786h-.16l1.079-1.366a25 25 0 01.766-1.007l.44-.556h.041c1.944-2.316 4.36-4.243 7.073-5.733z" fill="#5374E9"/><path d="M34.316 45.39c-6.24-2.548-11.045-7.939-12.86-14.413-.118-.41-.235-.85-.323-1.26A21.356 21.356 0 0120.606 25c0-.703.029-1.377.117-2.08A21.882 21.882 0 0125 11.816l.44-.556c2.285-2.871 5.36-5.186 8.876-6.65l2.989-1.231c-.82-.498-1.7-.938-2.608-1.318 0 0-.615-.235-.703-.264C32.53 1.211 31.124.703 29.658.44l-.264-.06-.263.06C17.383 2.666 8.887 13.047 8.887 25s8.496 22.334 20.244 24.56l.264.06.263-.06c1.465-.263 2.871-.77 4.336-1.357.088-.03.205-.088.293-.117l.498-.205a20.61 20.61 0 002.549-1.26l-3.018-1.23z" fill="#6C8DFF"/></g><defs><clipPath id="clip0_2_358"><path fill="#fff" d="M0 0h50v50H0z"/></clipPath></defs></svg>
